X:1
T:The Shadow of the Rock
T:The Shadow of the Rock
T:Ira David Sankey
T:Frances Jane (Fanny) Crosby, 1891
T:Public Domain Courtesy of the Cyber Hymnal™
C:Ira David Sankey
Z:Public Domain
Z:Courtesy of the Cyber Hymnal™
%%score ( 1 2 ) ( 3 4 )
L:1/8
Q:1/4=105
M:4/4
K:G
V:1 treble 
V:2 treble 
V:3 bass 
V:4 bass 
V:1
 [GB]2 [GB]>[DA] [DG]D[DG][FA] | [GB]2 [Ge]2 [Gd]2 G2 | [DB]4 [DA]2 [EG]2 | [FA]6 z2 | %4
w: 1.~Lead to the sha- dow of the|Rock of Ref- uge|My wear- y|feet;|
w: 2.~Lead to the sha- dow of the|Rock E- ter- nal|My heart op-|prest;|
w: 3.~Lead to the sha- dow of the|Rock of Ag- es;|Oh, keep Thou|me|
 [GB]2 [GB]>[DA] [DG]D[DG][FA] | [GB]2 [Ge]2 [Gd]2 G2 | [GB]4 [FB]2 [FA]2 | G6 z2 || %8
w: Give me the wa- ter from the|life- stream flow- ing|Clear, pure and|sweet.|
w: There in the sec- ret of Thy|ho- ly pre- sence,|Calm shall I|rest.|
w: Safe from the ar- rows of the|world’s temp- ta- tions,|Close, close to|Thee!|
"^Refrain" [FA]2 [FA]>[EG] [DF][EG][FA][GB] | [Ac]2 [FA]2 [GB]2 G2 | %10
w: ||
w: There from the bil- lows and the|temp- est hid- ing,|
w: ||
 [GB]2 [GB]>[DA] [DG][DA][GB][Gc] | [Gd]2 [DB]2 [Fc]2 [FA]2 | [GB]2 [GB]>[DA] [DG]D[DG][FA] | %13
w: |||
w: Un- der the shel- ter of Thy|love a- bid- ing,|Safe in the sha- dow of the|
w: |||
 [GB]2 [Ge]2 [Gd]2 G2 | [GB]4 [FB]2 [FA]2 | G6 z2 |] %16
w: |||
w: “Rock of Ag- es,”|Joy shall be|mine!|
w: |||
V:2
 x5 D x2 | x6 G2 | x8 | x8 | x5 D x2 | x6 G2 | x8 | G6 x2 || x8 | x6 G2 | x8 | x8 | x5 D x2 | %13
 x6 G2 | x8 | G6 x2 |] %16
V:3
 [G,D]2 [G,D]>[G,C] [G,B,][G,B,][B,,D][D,D] | [G,D]2 [G,C]2 [G,B,]2 [G,B,]2 | G,4 [F,A,]2 (B,^C) | %3
 [D,D]6 z2 | [G,D]2 [G,D]>[G,C] [G,B,][G,B,][B,,D][D,D] | [G,D]2 [G,C]2 [G,B,]2 [E,B,]2 | %6
 [D,D]4 [D,D]2 [D,C]2 | [G,B,]6 z2 || [D,D]2 [D,D]>[D,D] [D,D][D,D][D,D][D,D] | %9
 [D,D]2 [D,D]2 [G,D]2 [G,B,]2 | [G,D]2 [G,D]>[G,C] [G,B,][G,C][G,D][G,A,] | %11
 [G,B,]2 G,2 [D,A,]2 [D,D]2 | [G,D]2 [G,D]>[G,C] [G,B,][G,B,][B,,D][D,D] | %13
 [G,D]2 [C,C]2 [B,,D]2 [E,B,]2 | [D,D]4 [D,C]2 [D,B,]2 | [G,B,]6 z2 |] %16
V:4
 x8 | x8 | G,4 E,2 x2 | x8 | x8 | x8 | x8 | x8 || x8 | x8 | x8 | x2 G,2 x4 | x8 | x8 | x8 | x8 |] %16

